X:985
T:High Drive, The
R:reel
C:Gordon Duncan (1964-2005), Scotland
Z:id:hn-reel-985
M:C|
L:1/8
K:D
d3e fedA | B2gB BAGB | GA~A2 fedf | eA~A2 efge |
d3e fedA | B2gB BAGB | GA~A2 fedf | edce d4 :|
|: a3g ad~d2 | AB~B2 gBdB | GA~A2 fedf | eA~A2 efge |
[1 a3g ad~d2 | AB~B2 gBdB | GA~A2 fedf | edce d4 :|
[2 d3e fedA | B2gB BAGB | GA~A2 fedf | edce d4 ||
|: dAeA fA~A2 | gBBA Bgag | fA~A2 fgaf | eA~A2 efge |
dAeA fA~A2 | gBBA Bgag | fA~A2 fgaf | edce d4 :|
|: adda ddad | gddg ddgd | fddf ddfd | edde defg |
adda ddad | gddg ddgd | GA~A2 fedf | edce d4 :|

